X:54
T:Peter Flanagan's
S:Larry Nugent, eponymous Shanachie album
Z: id:ng-reels-54 transcribed by Alan Ng alan@alan-ng.nospam (net) 11 Nov 2007
D:Larry Nugent, Laurence Nugent, Shanachie 78001, 1996
M:C|
K:ADor
AG|EAAG ~A2cd|eged egga|gedB GABd|~e2dB AGED|\
EAAG Azcd|eged egga|gedB GABd|1~e2dB AABG:|2~e2dB azbg|:\
a2ea a2ea|a2ba gede|egdg g2dg|g2dg gedg|\
a2ba a2ea|a2ba gedg|gedB GABd|~e2dB azbg:|2~e2dB AABG|]*
